X: 22
T: The Woods of Kilmurry
M: 6/8
L: 1/8
B: "O'Neill's 22"
N: "Slow" "collected by F. O'Neill"
Z: "Transcribed by Norbert Paap, norbertp@bdu.uva.nl"
K:Gm
d/2-c/2 | (BAG) (FDC) | (D (G2 G2)) G/2-A/2 | (BAG) (dcA) | F3-F2 d/2-c/2 |
(BAG) (FDC) | (D (G2 G))zG/2-A/2 | B-<dc A-<BA | G3-G2 ||
G/2-A/2 | (B>cd/2=e/2) (fdc) | (d (g2 g))zg/2-a/2 | (bag) (dcA) | G3-G2za/2-g/2 |
(fed) (cAG) | (F (D2 D))zG/2-A/2 | B-<dc A-<BA | G3-G2 ||


